Origami/64x64/apps/krusader_root.svg

<svg width="64" height="64" version="1" xmlns="http://www.w3.org/2000/svg">
 <path d="m10 56.204v2c0 1.55 1.2284 2.796 2.754 2.796h38.496c1.524 0 2.75-1.246 2.75-2.796v-2c0 1.55-1.226 2.796-2.75 2.796h-38.496c-1.5256 0-2.754-1.246-2.754-2.796z" style="opacity:.2"/>
 <path d="m12.7526 4c-1.52548 0-2.7526 1.248771-2.7526 2.79997v50.398659c0 1.55276 1.2272 2.801371 2.7526 2.801371h38.496c1.52348 0 2.75-1.248771 2.75-2.79997v-50.398659c0-1.551179-1.22648-2.79997-2.75-2.79997h-38.496z" style="fill:#f84e4e"/>
 <path d="m12.753906 4.0273438c-1.5256 0-2.753906 1.2503812-2.753906 2.8007812v1c0-1.5504 1.228306-2.8007812 2.753906-2.8007812h38.496094c1.524 0 2.75 1.2503812 2.75 2.8007812v-1c0-1.5504-1.226-2.8007812-2.75-2.8007812h-38.496094z" style="fill:#ffffff;opacity:.2"/>
 <g transform="matrix(.32832 0 0 .32142 16.6142 15.00096)" style="opacity:.2">
  <path d="m59.227 70.242 16.607 36.378-12.248 5.38-15.847-36.764-1.988-4.635-3.672 3.446-19.583 19.286v-93.333l67.008 62.222-27.375 3.028-4.969 0.447z"/>
 </g>
 <g transform="matrix(.32832 0 0 .32142 16.6142 14)" style="fill:#ffffff">
  <path d="m59.227 70.242 16.607 36.378-12.248 5.38-15.847-36.764-1.988-4.635-3.672 3.446-19.583 19.286v-93.333l67.008 62.222-27.375 3.028-4.969 0.447z"/>
 </g>
</svg>

<svg xmlns="http://www.w3.org/2000/svg" width="64" height="64" version="1">
 <path style="opacity:0.2" d="m 10,56.204 0,2 C 10,59.754 11.2284,61 12.754,61 L 51.25,61 C 52.774,61 54,59.754 54,58.204 l 0,-2 C 54,57.754 52.774,59 51.25,59 L 12.754,59 C 11.2284,59 10,57.754 10,56.204 Z"/>
 <path style="fill:#f84e4e" d="M 12.7526,4 C 11.22712,4 10,5.248771 10,6.79997 l 0,50.398659 C 10,58.751389 11.2272,60 12.7526,60 l 38.496,0 c 1.52348,0 2.75,-1.248771 2.75,-2.79997 l 0,-50.3986593 c 0,-1.551179 -1.22648,-2.79997 -2.75,-2.79997 l -38.496,0 z"/>
 <path style="opacity:0.2;fill:#ffffff" d="M 12.753906 4.0273438 C 11.228306 4.0273438 10 5.277725 10 6.828125 L 10 7.828125 C 10 6.277725 11.228306 5.0273438 12.753906 5.0273438 L 51.25 5.0273438 C 52.774 5.0273438 54 6.277725 54 7.828125 L 54 6.828125 C 54 5.277725 52.774 4.0273438 51.25 4.0273438 L 12.753906 4.0273438 z"/>
 <g style="opacity:0.2" transform="matrix(0.32832,0,0,0.32142,16.6142,15.00096)">
  <g>
   <path d="M 59.227,70.242 75.834,106.62 63.586,112 47.739,75.236 45.751,70.601 42.079,74.047 22.496,93.333 22.496,0 89.504,62.222 62.129,65.25 57.16,65.697 Z"/>
  </g>
 </g>
 <g style="fill:#ffffff" transform="matrix(0.32832,0,0,0.32142,16.6142,14)">
  <g>
   <path d="M 59.227,70.242 75.834,106.62 63.586,112 47.739,75.236 45.751,70.601 42.079,74.047 22.496,93.333 22.496,0 89.504,62.222 62.129,65.25 57.16,65.697 Z"/>
  </g>
 </g>
</svg>
